X:1
T:Title
%%score { ( 1 4 ) | ( 2 3 ) }
L:1/8
M:4/4
K:Eb
V:1 treble nm="Grand Piano"
V:4 treble 
V:2 bass 
V:3 bass 
V:1
 z4 z2[Q:1/4=100] [B,EG]E | B2 [FB]2 [EB]2 ed |[M:7/8] [Ec]2 c- [Fc] [GB]3 |[M:1/4] z G | %4
[M:4/4] [EGB]2 [FB]-[A,FB] B2 cB |[M:7/8] A2 A- [FA] G3 |[M:1/4] [GB]2 |[M:4/4] =A2 c2 B2 ce | %8
[M:3/4] z2 c2 z2 |[M:1/4] [B,EG]E |[M:4/4] z4 z2 .e2 |[M:7/8] z2 c2 z z2 |[M:1/4] z G | %13
[M:4/4] [EGB]2 [FB]-[A,FB] B2 cB |[M:7/8] A2 A- [FA] G3 |[M:1/4] [GB]2 |[M:4/4] =A2 c2 B2 ce | %17
[M:3/4] z2 c2 z2 |[M:1/4] G-[Gc] |[M:4/4] z4 c2 z2 |[M:7/8] [B,FA]2 [B,EG]2 [B,DF]3 | %21
[M:1/4] [B,FB]2 |[M:4/4] z2 [Fd]2 z2 .c2 |[M:7/8] z2 [DF]2 z z2 |] %24
V:2
 z4 z2 z G, | [E,G,E]2 [D,A,]2 [E,G,]2 G,-[B,,G,] |[M:7/8] [A,,A,]2 A,- [D,A,] [E,G,]3 | %3
[M:1/4] G,B, |[M:4/4] E,2 D,2 [E,G,E]2 E-[G,B,E] |[M:7/8] [F,CE]2 [B,,B,]2 [E,B,E]3 | %6
[M:1/4] [E,E]2 |[M:4/4] [F,CF]2 [F,=A,E]2 [G,B,D]2 [E,G,E][C,C] |[M:3/4] B,2 z2 z2 |[M:1/4] z G, | %10
[M:4/4] [E,G,E]2 [D,A,]2 [E,G,]2 G,-[B,,G,] |[M:7/8] [A,,A,]2 A,- [D,A,] [E,G,]3 |[M:1/4] G,B, | %13
[M:4/4] E,2 D,2 [E,G,E]2 E-[G,B,E] |[M:7/8] [F,CE]2 [B,,B,]2 [E,B,E]3 |[M:1/4] [E,E]2 | %16
[M:4/4] [F,CF]2 [F,=A,E]2 [G,B,D]2 [E,G,E][C,C] |[M:3/4] B,2 z2 z2 |[M:1/4] [E,G,]2 | %19
[M:4/4] [F,A,F]2 [G,B,E]2 .[A,CE]2 F,E, |[M:7/8] D,2 E,2 B,,3 |[M:1/4] D,2 | %22
[M:4/4] E,2 .[B,,B,]2 [C,G,]2 .[A,,A,]2 |[M:7/8] z2 B, z z z2 |] %24
V:3
 z4 z2 E,2 | z4 z2 .C,2 |[M:7/8] z2 C, z z z2 |[M:1/4] E,2 |[M:4/4] z4 z2 .A,2 |[M:7/8] x7 | %6
[M:1/4] x2 |[M:4/4] x8 |[M:3/4] [F,F]2- [F,=A,F]2 [B,,F,]2 |[M:1/4] E,2 |[M:4/4] z4 z2 .C,2 | %11
[M:7/8] z2 C, z z z2 |[M:1/4] E,2 |[M:4/4] z4 z2 .A,2 |[M:7/8] x7 |[M:1/4] x2 |[M:4/4] x8 | %17
[M:3/4] [F,F]2- [F,=A,F]2 [B,,F,]2 |[M:1/4] x2 |[M:4/4] z4 z2 B,2 |[M:7/8] x7 |[M:1/4] x2 | %22
[M:4/4] x8 |[M:7/8] [B,,B,]2 B,,2 [E,G,]3 |] %24
V:4
 x8 | z4 z2 E2 |[M:7/8] z2 E z z z2 |[M:1/4] E2 |[M:4/4] z2 .B,2 z4 |[M:7/8] z2 D z z z2 | %6
[M:1/4] x2 |[M:4/4] x8 |[M:3/4] d2 z E [DB]2 |[M:1/4] x2 |[M:4/4] B2 [FB]2 [EB]2 E-[Ed] | %11
[M:7/8] [Ec]2 E F [GB]3 |[M:1/4] E2 |[M:4/4] z2 .B,2 z4 |[M:7/8] z2 D z z z2 |[M:1/4] x2 | %16
[M:4/4] x8 |[M:3/4] d2 z E [DB]2 |[M:1/4] B z |[M:4/4] _d2 d2 z G,[A=d][Ge] |[M:7/8] x7 | %21
[M:1/4] x2 |[M:4/4] [B,GB]2 z A, [Ee]2 E-[CEA] |[M:7/8] [EG]2 z A, E3 |] %24

